X:439
T:Hare Hatch
C:John Young, c1726
M:6/8
R:Jig
S:Colin Hume's website,  colinhume.com  - chords can also be printed below the stave.
Q:3/8=102
%%MIDI ratio 3 1
K:G
P:A
|: D | "G"G>dc "/"BAG | "C"edc "Am"c>BA | "G"BdD "C"E2G | "Am"A>Bc "D"FGA | "G"B^cd "A7"d2c | "D"dAF "/"D2 :|
P:B
|: d | "C"egG "G"Bcd | "C"edc "Am"cBA | "G"dBG "Em"E2G | "Am"AcE "D"FAd | "G"B>AG "D7"DEF | "G"GDB, "/"G,2 :|

